packages/sources/icons/src/vitamix/exchange-fill.svg

<svg width="16" height="16" viewBox="0 0 16 16" xmlns="http://www.w3.org/2000/svg"><path d="M1.99658 1.33002C1.62848 1.33002 1.33008 1.62842 1.33008 1.99652V13.9935C1.33008 14.3616 1.62848 14.66 1.99658 14.66H13.9936C14.3617 14.66 14.6601 14.3616 14.6601 13.9935V1.99652C14.6601 1.62842 14.3617 1.33002 13.9936 1.33002H1.99658ZM12.0651 5.99552L9.81939 8.4454L8.83676 7.54466L9.64585 6.66201H4.66258V5.32901H9.64584L8.83676 4.44639L9.81939 3.54565L12.0651 5.99552ZM3.92505 9.99453L6.17076 7.54465L7.15339 8.44538L6.34431 9.32802H11.3276V10.661H6.34431L7.15339 11.5436L6.17076 12.4444L3.92505 9.99453Z"/></svg>

<svg width="16" height="16" xmlns="http://www.w3.org/2000/svg"><path d="M1.997 1.33a.666.666 0 0 0-.667.667v11.996c0 .369.298.667.667.667h11.997a.666.666 0 0 0 .666-.667V1.997a.666.666 0 0 0-.666-.667H1.997Zm10.068 4.666L9.82 8.446l-.982-.901.809-.883H4.663V5.329h4.983l-.81-.883.983-.9 2.246 2.45Zm-8.14 3.999 2.246-2.45.982.9-.809.883h4.984v1.333H6.344l.81.883-.983.9-2.246-2.45Z"/></svg>
